X: 747
T: Cuen xuan
L: 1/8
M: 4/4
K: F
A2A c d f d c [I:setbarnb 1]| 
A2A FG4 | 
A2A c d f d c | 
A2A FG4 | 
A A A FG4 | 
A2A FG4 | 
c2A Gc2A G | 
F2G ED4 |]

@@@ Tune index: 9621
